X:136
T:Chief O'Neill's Favorite
R:Hornpipe
M:4/4
L:1/8
K:Dmix
de | ((3fgf) fg afge | fded dcAG | ((3FED) FD FGAB | ((3cBA) dc A2 de |
((3fgf) fg afge | fded dcAG | ((3FED) FD GBAG | F2 D2 D2 :|
DE | =F2FE FGAB | ((3cBA) dB cAGB | Adde fded | ((3cBA) dc A2 de |
((3fgf) fg afge | fded dcAG | ((3FED) FD GBAG | F2 D2 D2 :|

